packages/icons/src/components/Logo/assets/light/centos.svg

<svg width="20" height="20" viewBox="0 0 20 20" fill="none" xmlns="http://www.w3.org/2000/svg">
<path d="M9.30474 3.14675H3.14675V9.30474H9.30474V3.14675Z" fill="#9CCD2A"/>
<path d="M16.8533 3.14675H10.6953V9.30474H16.8533V3.14675Z" fill="#932279"/>
<path d="M16.8533 10.6953H10.6953V16.8533H16.8533V10.6953Z" fill="#EFA724"/>
<path d="M9.30474 10.6953H3.14675V16.8533H9.30474V10.6953Z" fill="#262577"/>
<path d="M5.64564 15.3376L10 19.692L14.3544 15.3376L10 10.9833L5.64564 15.3376Z" fill="#9CCD2A"/>
<path d="M0.308038 10L4.6624 14.3544L9.01676 10L4.6624 5.64564L0.308038 10Z" fill="#932279"/>
<path d="M5.64564 4.66241L10 9.01677L14.3544 4.66241L10 0.308046L5.64564 4.66241Z" fill="#EFA724"/>
<path d="M10.9832 10L15.3376 14.3544L19.692 10L15.3376 5.64564L10.9832 10Z" fill="#262577"/>
<path d="M12.9232 2.92327H17.0767V7.07678L20 10L17.0767 12.9232V17.0767H12.9232L10 20L7.07678 17.0767H2.92327V12.9232L0 10L2.92327 7.07678V2.92327H7.07678L10 0L12.9232 2.92327ZM9.52822 11.7739V17.0767H7.70879L10 19.3679L12.2912 17.0767H10.4718V11.7739L10 11.3075L9.52822 11.7739ZM10.9187 11.5872L14.6871 15.3128L13.3702 16.6298H16.6298V13.3702L15.3128 14.6871L11.5873 10.9187H10.9187V11.5872ZM10.9187 16.6298H12.7382L14.0532 15.3147L10.9187 12.2157V16.6298ZM5.94674 15.3147L7.26184 16.6298H9.08127V12.2157L5.94674 15.3147ZM4.68717 14.6871L3.37022 13.3702V16.6298H6.62982L5.31288 15.3128L9.08127 11.5872V10.9187H8.41273L4.68717 14.6871ZM3.37022 12.7382L4.68528 14.0532L7.78421 10.9187H3.37022V12.7382ZM15.3147 14.0532L16.6298 12.7382V10.9187H12.2158L15.3147 14.0532ZM0.632065 10L2.92327 12.2912V10.4718H8.22607L8.69246 10L8.22607 9.52822H2.92327V7.70879L0.632065 10ZM17.0767 9.52822H11.7739L11.3075 10L11.7739 10.4718H17.0767V12.2912L19.3679 10L17.0767 7.70879V9.52822ZM10 9.32104L9.52822 8.85459V9.52822H8.85464L9.32104 10L8.85464 10.4718H9.52822V11.1454L10 10.679L10.4718 11.1454V10.4718H11.1454L10.679 10L11.1454 9.52822H10.4718V8.85459L10 9.32104ZM12.2158 9.08127H16.6298V7.26184L15.3147 5.94674L12.2158 9.08127ZM14.6871 4.68717L10.9187 8.41273V9.08127H11.5873L15.3128 5.31288L16.6298 6.62982V3.37022H13.3702L14.6871 4.68717ZM3.37022 6.62982L4.68717 5.31288L8.41273 9.08127H9.08127V8.41273L5.31288 4.68717L6.62982 3.37022H3.37022V6.62982ZM3.37022 7.26184V9.08127H7.78421L4.68528 5.94674L3.37022 7.26184ZM7.70879 2.92327H9.52822V8.22607L10 8.69246L10.4718 8.22607V2.92327H12.2912L10 0.632065L7.70879 2.92327ZM5.94674 4.68528L9.08127 7.78421V3.37022H7.26184L5.94674 4.68528ZM10.9187 7.78421L14.0532 4.68528L12.7382 3.37022H10.9187V7.78421Z" fill="white"/>
</svg>

<svg xmlns="http://www.w3.org/2000/svg" width="20" height="20" fill="none" viewBox="0 0 20 20">
    <path fill="#9ccd2a" d="M9.305 3.147H3.147v6.158h6.158z"/>
    <path fill="#932279" d="M16.853 3.147h-6.158v6.158h6.158z"/>
    <path fill="#efa724" d="M16.853 10.695h-6.158v6.158h6.158z"/>
    <path fill="#262577" d="M9.305 10.695H3.147v6.158h6.158z"/>
    <path fill="#9ccd2a" d="M5.646 15.338 10 19.692l4.354-4.354L10 10.983z"/>
    <path fill="#932279" d="m.308 10 4.354 4.354L9.017 10 4.662 5.646z"/>
    <path fill="#efa724" d="M5.646 4.662 10 9.017l4.354-4.355L10 .308z"/>
    <path fill="#262577" d="m10.983 10 4.355 4.354L19.692 10l-4.354-4.354z"/>
    <path fill="#fff" d="M12.923 2.923h4.154v4.154L20 10l-2.923 2.923v4.154h-4.154L10 20l-2.923-2.923H2.923v-4.154L0 10l2.923-2.923V2.923h4.154L10 0zm-3.395 8.85v5.304h-1.82L10 19.367l2.291-2.29h-1.82v-5.303L10 11.308zm1.39-.186 3.77 3.726-1.318 1.317h3.26v-3.26l-1.317 1.317-3.726-3.768h-.668zm0 5.043h1.82l1.315-1.315-3.134-3.1zm-4.971-1.315 1.315 1.315h1.82v-4.414zm-1.26-.628L3.37 13.37v3.26h3.26l-1.317-1.317 3.768-3.726v-.668h-.668zM3.37 12.738l1.315 1.315 3.1-3.134H3.37zm11.945 1.315 1.315-1.315v-1.82h-4.414zM.632 10l2.291 2.291v-1.82h5.303L8.692 10l-.466-.472H2.923v-1.82zm16.445-.472h-5.303l-.466.472.466.472h5.303v1.82L19.367 10l-2.29-2.291zM10 9.321l-.472-.466v.673h-.673L9.32 10l-.466.472h.673v.673L10 10.68l.472.466v-.673h.673L10.68 10l.466-.472h-.673v-.673zm2.216-.24h4.414v-1.82l-1.315-1.314zm2.471-4.394L10.92 8.413v.668h.668l3.726-3.768L16.63 6.63V3.37h-3.26zM3.37 6.63l1.317-1.317L8.413 9.08h.668v-.668L5.313 4.687 6.63 3.37H3.37zm0 .632v1.82h4.414L4.685 5.946zm4.34-4.339h1.82v5.303l.471.466.472-.466V2.923h1.82L10 .633zM5.947 4.685l3.134 3.1V3.37h-1.82zm4.972 3.1 3.134-3.1-1.315-1.315h-1.82z"/>
</svg>
